X:1
T:Le Papillon
T:Pièces Faciles et Agréables pour la Flûte ou Violon et Guitare 
T:Mauro Giuliani  (1781-1829)
T:Op.74
C:Giuliani
%%score { 1 ( 2 3 ) }
L:1/8
Q:1/4=108
M:4/4
K:C
V:1 treble nm="Flûte"
V:2 treble-8 nm="Classical Guitar"
V:3 treble-8 
V:1
"^Sostenuto" g>f |"_" e2 e>d c2 c>B | B2 A2 z2!<(! A>A | A2!<)! a2 g!>(!fed | %4
 c4!>)!{dc} B z d>d | e2 d2 z2 d>d | d2 b2- (3bag (3^fge | (e2 d>)B (d2 c>)A | G2 z2 z bag | %9
 ^fgab c'aef | g>b d2 z BAG | ^FGAB cAEF | G4 z2 B>c | d2 d2 =f2 f2 | e4 z fed | d c2 A c B2 ^G | %16
 A2 z2 z2 c>c |"_" c2 f>c c2 g>c | c2 a2 z3/2"_" ^g/ a>b | c'2 ^d2 d2 d2 | e3 z"_" g2 f>d | %21
 c2 z2 z"_" gab | (c'a)ff (ef)gf | ^d2 e2 z efg | (^ga)=gf edfd | B2 c2 z Gce | g f2 e g f2 e | %27
 d2 z2 z2 g>f | e2 e>d c2 c>B | B2 A2 z2!<(! A>A | A2!<)! a2 g!>(!fed | c4!>)!{dc} B z g>g | %32
 a2 g2 z2 g>g | g2 e'2- (3e'd'c' (3bc'a | (a2 g>)e (g2 f>)d | c2 z2 z e'd'c' | (c'b)ag (^fg)ab | %37
 c'2 g2 z edc | (cB)AG (^FG)AB | c2 z2"_"{/b} c'2 z2 | c4 z4 |] %41
V:2
 z2 |"^Sostenuto" z Gce z Gcg | z Acf z A^cg | z Adf z Adf | z Gce [Gd] z z2 | z DAc z DAc | %6
 z DGB z Gce | z GBg z Ad^f | z [DGB][DGB][DGB] z [DGB][DGB][DGB] | %9
 z [DAc][DAc][DAc] z [DAc][DAc][DAc] | z [DGB][DGB][DGB] z [DGB][DGB][DGB] | %11
 z [DAc][DAc][DAc] z [DAc][DAc][DAc] | [GB]2"_" [GBg]2 [GBg]2 z2 |"_" z Gdf z Adf | %14
 z Bde z ^GBe | A,[Ac]F[Ac] D[AB]E[^GB] | z AEC A,2 z2 |"_" z Acf z _Bcg | z Acf z4 | %19
"_" z2 [A^d]2 [Ad]2 [Ad]2 | z ^GBe"_" [=Gdf]4 | [ce]2 z2 z4 | z2 c2 c2 c2 | z2 B2 B2 B2 | %24
 z2 A2 A2 A2 | z2 G2 G2 G2 | [GB]2 [Gc]2 [GB]2 [Gc]2 | [GB]2 gG fGdG | z Gce z Gcg | z Acf z A^cg | %30
 z Adf z Adf | z Gce [Gd] z z2 | z Gdf z Gdf | z Gce z Acf | z Gce z GBf | %35
 z [Gce][Gce][Gce] z [Gce][Gce][Gce] | z [Gdf][Gdf][Gdf] z [Gdf][Gdf][Gdf] | %37
 z [Gce][Gce][Gce] z [Gce][Gce][Gce] | z [Gdf][Gdf][Gdf] z [Gdf][Gdf][Gdf] | [Gce]2 Cc G,G E,E | %40
 [EGce]4 z4 |] %41
V:3
 x2 | C4 E4 | F4 E4 | D4 F,4 | G,4 G, z z2 | ^F,4 F,4 | G,4 C4 | D4 D4 | G,4 G,4 | G,4 G,4 | %10
 G,4 G,4 | G,4 G,4 | G,2 G,2 G,2 z2 | B,4 A,4 | ^G,4 E,4 | A,2 F2 D2 E2 | A,4 x4 | F,4 E,4 | %18
 F,4 F,2 z2 | z2 F2 F2 F2 | E4 B,4 | CEGc C z z2 | z2 A2 A2 A2 | z2 G2 G2 G2 | z2 F2 F2 F2 | %25
 z2 E2 E2 E2 | D2 C2 D2 C2 | G,2 G,2 A,2 B,2 | C4 E4 | F4 E4 | D4 F,4 | G,4 G, z z2 | B,4 B,4 | %33
 C4 F,4 | G,4 G,4 | C4 C4 | C4 C4 | C4 C4 | C4 C4 | C2 C2 G,2 E,2 | C4 z4 |] %41

